Newaita/actions/22/applications-system.svg

<?xml version="1.0" encoding="UTF-8"?>
<svg xmlns="http://www.w3.org/2000/svg" xmlns:xlink="http://www.w3.org/1999/xlink" width="22pt" height="22pt" viewBox="0 0 22 22" version="1.1">
<defs>
<filter id="alpha" filterUnits="objectBoundingBox" x="0%" y="0%" width="100%" height="100%">
  <feColorMatrix type="matrix" in="SourceGraphic" values="0 0 0 0 1 0 0 0 0 1 0 0 0 0 1 0 0 0 1 0"/>
</filter>
<mask id="mask0">
  <g filter="url(#alpha)">
<rect x="0" y="0" width="22" height="22" style="fill:rgb(0%,0%,0%);fill-opacity:0.988235;stroke:none;"/>
  </g>
</mask>
<clipPath id="clip1">
  <rect x="0" y="0" width="22" height="22"/>
</clipPath>
<g id="surface5" clip-path="url(#clip1)">
<path style=" stroke:none;fill-rule:nonzero;fill:rgb(47.058824%,56.470591%,61.176473%);fill-opacity:1;" d="M 8.1875 1.082031 C 7.683594 1.082031 7.277344 1.457031 7.277344 1.925781 L 7.277344 2.546875 C 6.820312 2.648438 6.390625 2.828125 6.003906 3.070312 L 5.566406 2.632812 C 5.238281 2.304688 4.683594 2.324219 4.328125 2.679688 C 3.972656 3.035156 3.949219 3.589844 4.28125 3.921875 L 4.71875 4.359375 C 4.476562 4.742188 4.296875 5.171875 4.195312 5.628906 L 3.574219 5.628906 C 3.105469 5.628906 2.730469 6.035156 2.730469 6.539062 C 2.730469 7.042969 3.105469 7.449219 3.574219 7.449219 L 4.195312 7.449219 C 4.296875 7.90625 4.476562 8.335938 4.71875 8.71875 L 4.28125 9.15625 C 3.949219 9.488281 3.972656 10.042969 4.328125 10.398438 C 4.683594 10.753906 5.238281 10.773438 5.566406 10.445312 L 6.003906 10.007812 C 6.390625 10.25 6.820312 10.429688 7.277344 10.53125 L 7.277344 11.152344 C 7.277344 11.621094 7.683594 11.996094 8.1875 11.996094 C 8.691406 11.996094 9.097656 11.621094 9.097656 11.152344 L 9.097656 10.53125 C 9.554688 10.429688 9.984375 10.25 10.367188 10.007812 L 10.804688 10.445312 C 11.136719 10.773438 11.6875 10.753906 12.046875 10.398438 C 12.402344 10.042969 12.421875 9.488281 12.09375 9.15625 L 11.652344 8.71875 C 11.894531 8.335938 12.074219 7.90625 12.179688 7.449219 L 12.800781 7.449219 C 13.265625 7.449219 13.644531 7.042969 13.644531 6.539062 C 13.644531 6.035156 13.265625 5.628906 12.800781 5.628906 L 12.179688 5.628906 C 12.074219 5.171875 11.894531 4.742188 11.652344 4.359375 L 12.089844 3.921875 C 12.421875 3.589844 12.402344 3.035156 12.046875 2.679688 C 11.6875 2.324219 11.136719 2.304688 10.804688 2.632812 L 10.367188 3.070312 C 9.984375 2.828125 9.554688 2.648438 9.097656 2.546875 L 9.097656 1.925781 C 9.097656 1.457031 8.691406 1.082031 8.1875 1.082031 Z M 8.1875 4.265625 C 9.445312 4.265625 10.460938 5.277344 10.460938 6.539062 C 10.460938 7.796875 9.445312 8.8125 8.1875 8.8125 C 6.925781 8.8125 5.914062 7.796875 5.914062 6.539062 C 5.914062 5.277344 6.925781 4.265625 8.1875 4.265625 Z M 8.1875 4.265625 "/>
</g>
<mask id="mask1">
  <g filter="url(#alpha)">
<rect x="0" y="0" width="22" height="22" style="fill:rgb(0%,0%,0%);fill-opacity:0.988235;stroke:none;"/>
  </g>
</mask>
<clipPath id="clip2">
  <rect x="0" y="0" width="22" height="22"/>
</clipPath>
<g id="surface8" clip-path="url(#clip2)">
<path style=" stroke:none;fill-rule:nonzero;fill:rgb(25.882354%,25.882354%,25.882354%);fill-opacity:1;" d="M 14.199219 10.175781 C 13.695312 10.175781 13.289062 10.554688 13.289062 11.019531 L 13.289062 11.640625 C 12.832031 11.746094 12.402344 11.925781 12.019531 12.167969 L 11.582031 11.730469 C 11.25 11.398438 10.695312 11.417969 10.339844 11.777344 C 9.984375 12.132812 9.964844 12.683594 10.292969 13.015625 L 10.730469 13.453125 C 10.488281 13.839844 10.308594 14.265625 10.207031 14.726562 L 9.585938 14.726562 C 9.117188 14.726562 8.742188 15.132812 8.742188 15.636719 C 8.742188 16.140625 9.117188 16.542969 9.585938 16.542969 L 10.207031 16.542969 C 10.308594 17.003906 10.488281 17.429688 10.730469 17.816406 L 10.292969 18.253906 C 9.964844 18.585938 9.984375 19.136719 10.339844 19.492188 C 10.695312 19.851562 11.25 19.871094 11.582031 19.539062 L 12.019531 19.101562 C 12.402344 19.34375 12.832031 19.523438 13.289062 19.628906 L 13.289062 20.25 C 13.289062 20.714844 13.695312 21.09375 14.199219 21.09375 C 14.703125 21.09375 15.109375 20.714844 15.109375 20.25 L 15.109375 19.628906 C 15.566406 19.523438 15.996094 19.34375 16.378906 19.101562 L 16.820312 19.539062 C 17.148438 19.871094 17.703125 19.851562 18.058594 19.492188 C 18.414062 19.136719 18.433594 18.585938 18.105469 18.253906 L 17.667969 17.816406 C 17.910156 17.429688 18.089844 17.003906 18.191406 16.542969 L 18.8125 16.542969 C 19.28125 16.542969 19.65625 16.140625 19.65625 15.636719 C 19.65625 15.132812 19.28125 14.726562 18.8125 14.726562 L 18.191406 14.726562 C 18.089844 14.265625 17.910156 13.839844 17.667969 13.453125 L 18.105469 13.015625 C 18.433594 12.683594 18.414062 12.132812 18.058594 11.777344 C 17.703125 11.417969 17.148438 11.398438 16.820312 11.730469 L 16.378906 12.167969 C 15.996094 11.925781 15.566406 11.746094 15.109375 11.640625 L 15.109375 11.019531 C 15.109375 10.554688 14.703125 10.175781 14.199219 10.175781 Z M 14.199219 13.359375 C 15.460938 13.359375 16.472656 14.375 16.472656 15.636719 C 16.472656 16.894531 15.460938 17.910156 14.199219 17.910156 C 12.941406 17.910156 11.925781 16.894531 11.925781 15.636719 C 11.925781 14.375 12.941406 13.359375 14.199219 13.359375 Z M 14.199219 13.359375 "/>
</g>
</defs>
<g id="surface1">
<use xlink:href="#surface5" mask="url(#mask0)"/>
<use xlink:href="#surface8" mask="url(#mask1)"/>
</g>
</svg>

<svg xmlns="http://www.w3.org/2000/svg" xmlns:xlink="http://www.w3.org/1999/xlink" width="22pt" height="22pt" viewBox="0 0 22 22"><defs><filter id="a" filterUnits="objectBoundingBox" x="0%" y="0%" width="100%" height="100%"><feColorMatrix in="SourceGraphic" values="0 0 0 0 1 0 0 0 0 1 0 0 0 0 1 0 0 0 1 0"/></filter><mask id="e"><path fill-opacity=".988" d="M0 0h22v22H0z" filter="url(#a)"/></mask><clipPath id="b"><path d="M0 0h22v22H0z"/></clipPath><g id="d" clip-path="url(#b)"><path d="M8.188 1.082c-.504 0-.91.375-.91.844v.62a4.06 4.06 0 0 0-1.274.524l-.438-.437c-.328-.328-.882-.309-1.238.047-.355.355-.379.91-.047 1.242l.438.437a4 4 0 0 0-.524 1.27h-.62c-.47 0-.845.406-.845.91s.375.91.844.91h.621a4 4 0 0 0 .524 1.27l-.438.437c-.332.332-.308.887.047 1.242.356.356.91.375 1.238.047l.438-.437a4.06 4.06 0 0 0 1.273.523v.621c0 .47.407.844.91.844.504 0 .91-.375.91-.844v-.62a4 4 0 0 0 1.27-.524l.438.437c.332.328.883.309 1.242-.047.355-.355.375-.91.047-1.242l-.442-.437a4.1 4.1 0 0 0 .528-1.27h.62c.466 0 .845-.406.845-.91s-.38-.91-.844-.91h-.621a4.1 4.1 0 0 0-.528-1.27l.438-.437c.332-.332.312-.887-.043-1.242-.36-.356-.91-.375-1.242-.047l-.438.437a4 4 0 0 0-1.27-.523v-.621c0-.469-.406-.844-.91-.844zm0 3.184a2.268 2.268 0 0 1 2.273 2.273 2.27 2.27 0 0 1-2.274 2.274 2.268 2.268 0 0 1-2.273-2.274 2.266 2.266 0 0 1 2.274-2.273zm0 0" fill="#78909c"/></g><mask id="g"><path fill-opacity=".988" d="M0 0h22v22H0z" filter="url(#a)"/></mask><clipPath id="c"><path d="M0 0h22v22H0z"/></clipPath><g id="f" clip-path="url(#c)"><path d="M14.2 10.176c-.505 0-.91.379-.91.844v.62a4.1 4.1 0 0 0-1.27.528l-.438-.438c-.332-.332-.887-.312-1.242.047-.356.356-.375.907-.047 1.239l.437.437a4.022 4.022 0 0 0-.523 1.274h-.621c-.469 0-.844.406-.844.91s.375.906.844.906h.621c.102.46.281.887.523 1.273l-.437.438c-.328.332-.309.883.047 1.238.355.36.91.38 1.242.047l.438-.437a4.1 4.1 0 0 0 1.27.527v.621c0 .465.405.844.91.844.503 0 .91-.38.91-.844v-.621a4.1 4.1 0 0 0 1.269-.527l.441.437c.328.332.883.313 1.239-.047.355-.355.375-.906.046-1.238l-.437-.438c.242-.386.422-.812.523-1.273h.622c.468 0 .843-.402.843-.906s-.375-.91-.843-.91h-.622a4.021 4.021 0 0 0-.523-1.274l.437-.437c.329-.332.31-.883-.046-1.239-.356-.359-.91-.379-1.239-.047l-.441.438a4.1 4.1 0 0 0-1.27-.527v-.621c0-.465-.406-.844-.91-.844zm0 3.183a2.269 2.269 0 0 1 2.273 2.278 2.268 2.268 0 0 1-2.274 2.273 2.27 2.27 0 0 1-2.273-2.273 2.271 2.271 0 0 1 2.273-2.278zm0 0" fill="#424242"/></g></defs><use xlink:href="#d" mask="url(#e)"/><use xlink:href="#f" mask="url(#g)"/></svg>
